svgs/duotone/circle-h.svg

<svg xmlns="http://www.w3.org/2000/svg" viewBox="0 0 512 512"><!--! Font Awesome Pro 6.4.2 by @fontawesome - https://fontawesome.com License - https://fontawesome.com/license (Commercial License) Copyright 2023 Fonticons, Inc. --><path class="fa-primary" style="fill:var(--fa-primary-color,inherit);opacity:var(--fa-primary-opacity,1);" d="M344 128c13.3 0 24 10.7 24 24l0 104V360c0 13.3-10.7 24-24 24s-24-10.7-24-24V280H192l0 80c0 13.3-10.7 24-24 24s-24-10.7-24-24l0-208c0-13.3 10.7-24 24-24s24 10.7 24 24l0 80 128 0 0-80c0-13.3 10.7-24 24-24z"/><path class="fa-secondary" style="fill:var(--fa-secondary-color,inherit);opacity:var(--fa-secondary-opacity,.4);" d="M256 512A256 256 0 1 0 256 0a256 256 0 1 0 0 512zM368 152V256 360c0 13.3-10.7 24-24 24s-24-10.7-24-24V280H192l0 80c0 13.3-10.7 24-24 24s-24-10.7-24-24l0-208c0-13.3 10.7-24 24-24s24 10.7 24 24v80H320V152c0-13.3 10.7-24 24-24s24 10.7 24 24z"/></svg>

<svg xmlns="http://www.w3.org/2000/svg" viewBox="0 0 512 512"><!--! Font Awesome Pro 6.1.1 by @fontawesome - https://fontawesome.com License - https://fontawesome.com/license (Commercial License) Copyright 2022 Fonticons, Inc. --><defs><style>.fa-secondary{opacity:.4}</style></defs><path class="fa-primary" d="M344 128C330.8 128 320 138.8 320 152v80H192v-80C192 138.8 181.3 128 168 128S144 138.8 144 152v208C144 373.3 154.8 384 168 384S192 373.3 192 360v-80h128v80c0 13.25 10.75 24 24 24s24-10.75 24-24v-208C368 138.8 357.3 128 344 128z"/><path class="fa-secondary" d="M256 0C114.6 0 0 114.6 0 256s114.6 256 256 256s256-114.6 256-256S397.4 0 256 0zM368 360c0 13.25-10.75 24-24 24S320 373.3 320 360v-80H192v80C192 373.3 181.3 384 168 384S144 373.3 144 360v-208C144 138.8 154.8 128 168 128S192 138.8 192 152v80h128v-80C320 138.8 330.8 128 344 128s24 10.75 24 24V360z"/></svg>
